public/icons/small/instagram.svg

<?xml version="1.0" encoding="UTF-8"?>
<svg width="18px" height="18px" viewBox="0 0 18 18" version="1.1" xmlns="http://www.w3.org/2000/svg" xmlns:xlink="http://www.w3.org/1999/xlink">
    <title>Icon / 24px / LinkedIn Copy</title>
    <defs>
        <path d="M9.54394912,0.000215192819 C9.62855361,0.000289017326 9.7101018,0.000382868136 9.78877221,0.000498315426 L10.4239265,0.00216284071 C11.6211279,0.00708683789 11.972807,0.0215076646 12.7035362,0.0561951579 C13.6578947,0.0982730175 14.3105811,0.252604175 14.8824013,0.473684211 C15.4788926,0.698190807 16.0227522,1.05263158 16.4719024,1.50877193 C16.9316064,1.95792214 17.2824835,2.49821821 17.5105537,3.10169958 C17.7316338,3.67023025 17.8859649,4.32634319 17.9280428,5.28070175 C17.9347752,5.4339693 17.9405217,5.57052807 17.9454254,5.70178972 L17.9550969,5.99300382 C17.9681169,6.44707638 17.9721277,6.94110372 17.9732674,7.96436028 L17.9734708,9.52818523 C17.9733979,9.61278881 17.9733054,9.69433562 17.9731921,9.77300398 L17.97225,10.2118991 C17.9682018,11.5692544 17.9547149,11.9178728 17.9210526,12.6842105 C17.8789748,13.6385691 17.7245066,14.2912555 17.5035636,14.8632127 C17.0368695,16.0701754 16.0825109,17.024534 14.8754112,17.4912281 C14.3070175,17.7123081 13.6509046,17.8666393 12.696546,17.9087171 C11.8918914,17.9441776 11.5477724,17.9572013 10.0128875,17.9604611 L7.97668695,17.9604611 C6.44177411,17.9572013 6.09757677,17.9441776 5.29303726,17.9087171 C4.33854168,17.8666393 3.68599232,17.7123081 3.11403509,17.4912281 C2.51754386,17.2667215 1.97368421,16.9122807 1.524534,16.4561404 C1.06839365,16.0069901 0.714089895,15.4666941 0.486019719,14.8632127 C0.264939684,14.294682 0.110471509,13.6385691 0.0683936491,12.6842105 C0.0364144758,11.9561897 0.0226436459,11.6051605 0.017875648,10.4081152 L0.0162542277,9.77300398 C0.0161408331,9.69433562 0.0160483507,9.61278881 0.0159754384,9.52818523 L0.015977263,8.43672523 C0.0160510875,8.35212074 0.0161449383,8.27057255 0.0162603856,8.19190214 L0.0179249109,7.55674782 C0.0228489081,6.35954649 0.0372697347,6.00786732 0.0719572281,5.27713818 C0.114035088,4.32277961 0.268366246,3.67023025 0.489446281,3.09827302 C0.714089895,2.50178179 1.06839365,1.95792214 1.524534,1.50877193 C1.97368421,1.049068 2.51398028,0.698190807 3.11759867,0.470120632 C3.68599232,0.249177614 4.34210526,0.0947094386 5.29646382,0.0526315789 C6.02448465,0.0206524056 6.37551382,0.00688157575 7.57255916,0.0021135778 L8.20767037,0.000492157561 C8.28633873,0.000378762893 8.36788554,0.000286280497 8.45248912,0.000213368266 Z M8.99821821,4.36842105 C6.450932,4.36842105 4.38418312,6.43503291 4.38418312,8.98245614 C4.38418312,11.5298794 6.450932,13.5964912 8.99821821,13.5964912 C11.5456414,13.5964912 13.6122533,11.5298794 13.6122533,8.98245614 C13.6122533,6.43503291 11.5456414,4.36842105 8.99821821,4.36842105 Z M8.99821821,5.98944628 C10.6509046,5.98944628 11.9912281,7.32976975 11.9912281,8.98245614 C11.9912281,10.6351425 10.6509046,11.975466 8.99821821,11.975466 C7.34566884,11.975466 6.00520835,10.6351425 6.00520835,8.98245614 C6.00520835,7.32976975 7.34566884,5.98944628 8.99821821,5.98944628 Z M13.794682,3.10882674 C13.1998355,3.10882674 12.7175165,3.59100877 12.7175165,4.18599232 C12.7175165,4.78083881 13.1998355,5.26315789 13.794682,5.26315789 C14.3896656,5.26315789 14.8719846,4.78083881 14.8719846,4.18599232 C14.8719846,3.59100877 14.3896656,3.10882674 13.794682,3.10882674 Z" id="instagram-path-1"></path>
    </defs>
    <g id="instagram-Library" stroke="none" stroke-width="1" fill="none" fill-rule="evenodd">
        <g id="instagram-Typography-Copy" transform="translate(-654.000000, -467.000000)">
            <g id="instagram-Iconography" transform="translate(171.000000, 280.000000)">
                <g id="instagram-Group-3" transform="translate(0.000000, 88.000000)">
                    <g id="instagram-Group" transform="translate(480.000000, 96.000000)">
                        <rect id="instagram-BASE" x="0" y="0" width="24" height="24"></rect>
                        <g id="instagram-Instagram" transform="translate(3.000000, 3.000000)">
                            <mask id="instagram-mask-2" fill="white">
                                <use xlink:href="#instagram-path-1"></use>
                            </mask>
                            <use id="instagram-Mask" fill="#000000" fill-rule="nonzero" xlink:href="#instagram-path-1"></use>
                            <rect id="instagram-COLOUR" fill="#75A7FD" mask="url(#instagram-mask-2)" x="-3" y="-3" width="24" height="24"></rect>
                        </g>
                    </g>
                </g>
            </g>
        </g>
    </g>
</svg>

<svg width="18" height="18" xmlns="http://www.w3.org/2000/svg" xmlns:xlink="http://www.w3.org/1999/xlink">
  <defs>
    <path d="M9.544 0h.245l.635.002c1.197.005 1.549.02 2.28.054.954.042 1.607.197 2.178.418a4.42 4.42 0 011.59 1.035c.46.449.81.99 1.039 1.593.22.568.375 1.224.417 2.179.007.153.013.29.017.42l.01.292c.013.454.017.948.018 1.971v2.248a47.16 47.16 0 01-.052 2.472c-.042.955-.196 1.607-.417 2.18a4.594 4.594 0 01-2.629 2.627c-.568.221-1.224.376-2.178.418-.805.035-1.15.048-2.684.051H7.977c-1.535-.003-1.88-.016-2.684-.051-.954-.042-1.607-.197-2.179-.418a4.42 4.42 0 01-1.59-1.035 4.43 4.43 0 01-1.038-1.593C.265 14.295.11 13.64.068 12.684a44.85 44.85 0 01-.05-2.276l-.002-.635V8.437v-.245l.002-.635c.005-1.197.02-1.55.054-2.28.042-.954.196-1.607.417-2.179a4.422 4.422 0 011.036-1.59c.449-.459.989-.81 1.593-1.038C3.686.25 4.342.095 5.296.053a44.85 44.85 0 012.277-.05L8.208 0h.244zm-.546 4.368a4.615 4.615 0 000 9.228 4.615 4.615 0 000-9.228zm0 1.621a2.993 2.993 0 110 5.987 2.993 2.993 0 010-5.987zm4.797-2.88a1.077 1.077 0 100 2.154 1.077 1.077 0 000-2.154z" id="a-insta"/>
  </defs>
  <g fill="none" fill-rule="evenodd">
    <path d="M-3-3h24v24H-3z"/>
    <g>
      <mask id="b-insta" fill="#fff">
        <use xlink:href="#a-insta"/>
      </mask>
      <use fill="#000" fill-rule="nonzero" xlink:href="#a-insta"/>
      <path fill="#75A7FD" mask="url(#b-insta)" d="M-3-3h24v24H-3z"/>
    </g>
  </g>
</svg>
